actions/22x22-light/view-time-schedule-baselined-remove.svg

<svg xmlns="http://www.w3.org/2000/svg" viewBox="0 0 22 22">
 <defs id="defs3051">
   <style type="text/css" id="current-color-scheme">
     .ColorScheme-Text {
       color:#4d4d4d;
     }
     </style>
 </defs>
   <path
      style="fill:currentColor;fill-opacity:1;stroke:none"
      d="m4 3c-.55402 0-1 .44598-1 1v14c0 .55402.44598 1 1 1h14c .55402 0 1-.44598 1-1v-14c0-.55402-.44598-1-1-1zm7 3c .90721 0 1.7436.22283 2.50977.66992.76601.44709 1.37322 1.0543 1.82031 1.82031.44693.76601.66992 1.60264.66992 2.50977 0 .90705-.22291 1.74368-.66992 2.50977-.44709.766-1.0543 1.3733-1.82031 1.82031-.76601.44709-1.60264.66992-2.50977.66992s-1.74368-.22283-2.50977-.66992-1.37322-1.05438-1.82031-1.82031c-.44701-.76617-.66992-1.60264-.66992-2.50977 0-.90705.22275-1.74368.66992-2.50977.44709-.76609 1.05422-1.3733 1.82031-1.82031.76601-.44709 1.60264-.66992 2.50977-.66992zm-1.4707 2.51953c-.11723 0-.21832.0406-.30078.12305l-.58594.58594c-.0825.0825-.12305.18355-.12305.30078 0 .11283.0406.21058.12305.29297l1.17969 1.17773-1.17969 1.17773c-.0825.0824-.12305.18014-.12305.29297 0 .11715.0406.2184.12305.30078l.58594.58594c.0825.0825.18355.12305.30078.12305.11283 0 .2105-.0406.29297-.12305l1.17773-1.17969 1.17773 1.17969c.0823.0825.18014.12305.29297.12305.11723 0 .21832-.0406.30078-.12305l.58594-.58594c.0825-.0824.12305-.18363.12305-.30078 0-.11283-.0406-.21058-.12305-.29297l-1.17969-1.17773 1.17969-1.17773c.0825-.0824.12305-.18014.12305-.29297 0-.11723-.0406-.21832-.12305-.30078l-.58594-.58594c-.0825-.0825-.18355-.12305-.30078-.12305-.11283 0-.21066.0406-.29297.12305l-1.17773 1.17969-1.17773-1.17969c-.0825-.0825-.18014-.12305-.29297-.12305z"
      class="ColorScheme-Text" />
</svg>

<svg xmlns="http://www.w3.org/2000/svg" viewBox="0 0 22 22">
  <defs id="defs3051">
    <style type="text/css" id="current-color-scheme">
      .ColorScheme-Text {
        color:#4d4d4d
      }
      </style>
  </defs>
 <path 
     style="fill:currentColor;fill-opacity:1;stroke:none"      
	 class="ColorScheme-Text"
        d="M 4,3 C 3.44598,3 3,3.44598 3,4 l 0,14 c 0,0.55402 0.44598,1 1,1 l 14,0 c 0.55402,0 1,-0.44598 1,-1 L 19,4 C 19,3.44598 18.55402,3 18,3 L 4,3 Z m 7,3 c 0.90721,0 1.7436,0.22283 2.50977,0.66992 0.76601,0.44709 1.37322,1.0543 1.82031,1.82031 C 15.77701,9.25624 16,10.09287 16,11 c 0,0.90705 -0.22291,1.74368 -0.66992,2.50977 -0.44709,0.766 -1.0543,1.3733 -1.82031,1.82031 C 12.74376,15.77717 11.90713,16 11,16 10.09287,16 9.25632,15.77717 8.49023,15.33008 7.72414,14.88299 7.11701,14.2757 6.66992,13.50977 6.22291,12.7436 6,11.90713 6,11 6,10.09295 6.22275,9.25632 6.66992,8.49023 7.11701,7.72414 7.72414,7.11693 8.49023,6.66992 9.25624,6.22283 10.09287,6 11,6 Z M 9.5293,8.51953 c -0.11723,0 -0.21832,0.0406 -0.30078,0.12305 L 8.64258,9.22852 c -0.0825,0.0825 -0.12305,0.18355 -0.12305,0.30078 0,0.11283 0.0406,0.21058 0.12305,0.29297 L 9.82227,11 8.64258,12.17773 c -0.0825,0.0824 -0.12305,0.18014 -0.12305,0.29297 0,0.11715 0.0406,0.2184 0.12305,0.30078 l 0.58594,0.58594 c 0.0825,0.0825 0.18355,0.12305 0.30078,0.12305 0.11283,0 0.2105,-0.0406 0.29297,-0.12305 L 11,12.17773 l 1.17773,1.17969 c 0.0823,0.0825 0.18014,0.12305 0.29297,0.12305 0.11723,0 0.21832,-0.0406 0.30078,-0.12305 l 0.58594,-0.58594 c 0.0825,-0.0824 0.12305,-0.18363 0.12305,-0.30078 0,-0.11283 -0.0406,-0.21058 -0.12305,-0.29297 L 12.17773,11 13.35742,9.82227 c 0.0825,-0.0824 0.12305,-0.18014 0.12305,-0.29297 0,-0.11723 -0.0406,-0.21832 -0.12305,-0.30078 L 12.77148,8.64258 c -0.0825,-0.0825 -0.18355,-0.12305 -0.30078,-0.12305 -0.11283,0 -0.21066,0.0406 -0.29297,0.12305 L 11,9.82227 9.82227,8.64258 C 9.73977,8.56008 9.64213,8.51953 9.5293,8.51953 Z"
     />
</svg>
